X: 1
T: L\aangt ner i Sm\aaland
C: av Roger Tallroth
S: Bruce Sagan's "scanfolk" session archive 2020-10-27
F: Rhttps://app.box.com/s/u6iiren0igvsukrhdducy7orq72jayq8/file/734774846105
R: shottish
Z: 2021 John Chambers <jc:trillian.mit.edu>
M: 2/4
L: 1/8
K: Ddor
|:\
"D"D>A A>A | B2 A2 | "G"G>B B>B | c2 B2 |\
d>e d>c | "D7"A>B c2 | "G"B>A G2 | "F(Dm)"F4 ||\
"D"D>A A>A | B2 A2 |
"G"G>B B>B | c2 B2-|\
B2 G2 | "Dm"F>G F>D | "F"C2 D2 | "G"D4 ::\
"D"A>^F A2 | "G"B2 d2 | "C"e>d c2 | "G"d4 |\
"D"A2 A2 |
"G"G>A B2 | "C"c>B G2 | "D"A4 ||\
"D"A>^F A2 | "G"B2 d2 | "C"c>B G2 | "Dm"F4- |\
F2 F2 | E>F E>D | "F"C2 D2 | "G"D4 :|
